X:1
T:Willie Moore
M:4/4
L:1/8
K:F
 FF| G2 GA c2 c2| A2 AG F4| G2 GA c2 c2| G2- G4 z G| A3 G F2F-D| C2C-D F3 z|\
 G2A-G F2 CD| C2 CD F2||
